assets/icons/world-downloads.svg

<svg xmlns="http://www.w3.org/2000/svg" viewBox="0 0 384 512"><!--!Font Awesome Free 6.7.2 by @fontawesome - https://fontawesome.com License - https://fontawesome.com/license/free Copyright 2025 Fonticons, Inc.--><path d="M64 0C28.7 0 0 28.7 0 64L0 448c0 35.3 28.7 64 64 64l256 0c35.3 0 64-28.7 64-64l0-288-128 0c-17.7 0-32-14.3-32-32L224 0 64 0zM256 0l0 128 128 0L256 0zM216 232l0 102.1 31-31c9.4-9.4 24.6-9.4 33.9 0s9.4 24.6 0 33.9l-72 72c-9.4 9.4-24.6 9.4-33.9 0l-72-72c-9.4-9.4-9.4-24.6 0-33.9s24.6-9.4 33.9 0l31 31L168 232c0-13.3 10.7-24 24-24s24 10.7 24 24z"/></svg>

<?xml version="1.0" encoding="UTF-8" standalone="no"?>
<!DOCTYPE svg PUBLIC "-//W3C//DTD SVG 1.1//EN" "http://www.w3.org/Graphics/SVG/1.1/DTD/svg11.dtd">
<svg width="100%" height="100%" viewBox="0 0 384 512" version="1.1" xmlns="http://www.w3.org/2000/svg" xmlns:xlink="http://www.w3.org/1999/xlink" xml:space="preserve" xmlns:serif="http://www.serif.com/" style="fill-rule:evenodd;clip-rule:evenodd;stroke-linejoin:round;stroke-miterlimit:2;">
    <path d="M64,0C28.7,0 0,28.7 0,64L0,448C0,483.3 28.7,512 64,512L320,512C355.3,512 384,483.3 384,448L384,160L256,160C238.3,160 224,145.7 224,128L224,0L64,0ZM256,0L256,128L384,128L256,0ZM216,232L216,334.1L247,303.1C256.4,293.7 271.6,293.7 280.9,303.1C290.2,312.5 290.3,327.7 280.9,337L208.9,409C199.5,418.4 184.3,418.4 175,409L103,337C93.6,327.6 93.6,312.4 103,303.1C112.4,293.8 127.6,293.7 136.9,303.1L167.9,334.1L168,232C168,218.7 178.7,208 192,208C205.3,208 216,218.7 216,232Z" style="fill:white;fill-rule:nonzero;"/>
</svg>
